docs/assets/img/details/btnIcons/envelope.svg

<?xml version="1.0" encoding="UTF-8"?>
<svg width="28px" height="21px" viewBox="0 0 28 21" version="1.1" xmlns="http://www.w3.org/2000/svg" xmlns:xlink="http://www.w3.org/1999/xlink">
    <title>envelope</title>
    <g id="Welcome" stroke="none" stroke-width="1" fill="none" fill-rule="evenodd">
        <g id="lpw-featured-development-detailed-page-1.0" transform="translate(-1469.000000, -1836.000000)" fill="#018E37" fill-rule="nonzero">
            <g id="envelope" transform="translate(1469.000000, 1836.000000)">
                <path d="M25.3749817,0.05141727 L2.62501827,0.05141727 C1.17749417,0.05141727 5.68434189e-14,1.22585301 5.68434189e-14,2.66961731 L5.68434189e-14,18.3787009 C5.68434189e-14,19.8224652 1.17749417,20.996901 2.62501827,20.996901 L25.3749817,20.996901 C26.8225058,20.996901 28,19.8224652 28,18.3787009 L28,2.66961731 C28,1.22585301 26.8225058,0.05141727 25.3749817,0.05141727 Z M25.3749817,1.79686453 C25.493865,1.79686453 25.606962,1.82146554 25.7103566,1.86442985 L14,11.9875109 L2.28958498,1.86442985 C2.39297956,1.82152383 2.50607651,1.79686453 2.62495982,1.79686453 L25.3749817,1.79686453 Z M25.3749817,19.2513954 L2.62501827,19.2513954 C2.14223747,19.2513954 1.74999269,18.8602277 1.74999269,18.3786426 L1.74999269,3.70851432 L13.4266248,13.8019809 C13.5915651,13.944282 13.7957826,14.0150536 14,14.0150536 C14.2042174,14.0150536 14.4084349,13.9443403 14.5733752,13.8019809 L26.2500073,3.70851432 L26.2500073,18.3787009 C26.2500073,18.8602277 25.8577625,19.2513954 25.3749817,19.2513954 L25.3749817,19.2513954 Z" id="Shape"></path>
            </g>
        </g>
    </g>
</svg>

<svg width="28" height="21" xmlns="http://www.w3.org/2000/svg"><path d="M25.375.051H2.625A2.624 2.624 0 000 2.67v15.709a2.624 2.624 0 002.625 2.618h22.75A2.624 2.624 0 0028 18.379V2.669A2.624 2.624 0 0025.375.052zm0 1.746c.119 0 .232.024.335.067L14 11.988 2.29 1.864a.873.873 0 01.335-.067h22.75zm0 17.454H2.625a.874.874 0 01-.875-.872V3.709l11.677 10.093a.875.875 0 001.146 0L26.25 3.709v14.67a.874.874 0 01-.875.872z" fill="#018E37"/></svg>
